X: 9
T: Battle Hymn of the Republic v.2
P: piffero secondo a0153
O: safd 092
%R: march
F: http://ancients.sudburymuster.org/mus/col/pdf/hymnsF.pdf
Z: 2020 John Chambers <jc:trillian.mit.edu>
M: 6/8
L: 1/8
K: D
F |\
F2F F2E | D2E F2G | A2A A2G | F3 F2F |\
G2G G2A | B2A B2G | F2G F2D | F3 F2F |
F2F F2E | D2E F2G | A2A A2G | F3 "^>"F3 |\
"^>"G3 "^>"G3 | "^>"F3 "^>"E3 | F6- | F3 z3 |\
F3- F2E | D2E F2G | (A6 | F6) |
G3- G2A | B2A B2G | (F6 | D6) |\
F3- F2E | D2E F2G | (A6 | F3) F3 |\
"^>"G3 "^>"G3 | "^>"F3 "^>"E3 | F6- | F3 z2 :|


